resources/svgs/projects.svg

<?xml version="1.0" encoding="utf-8"?>
<!-- Generator: Adobe Illustrator 17.0.0, SVG Export Plug-In . SVG Version: 6.00 Build 0)  -->
<!DOCTYPE svg PUBLIC "-//W3C//DTD SVG 1.1//EN" "http://www.w3.org/Graphics/SVG/1.1/DTD/svg11.dtd">
<svg version="1.1" id="Layer_1" xmlns="http://www.w3.org/2000/svg" xmlns:xlink="http://www.w3.org/1999/xlink" x="0px" y="0px"
	 width="20px" height="20px" viewBox="0 0 20 20" enable-background="new 0 0 20 20" xml:space="preserve">
<g id="projects">
	<path id="bottom-right" d="M0,0v9h9V0H0L0,0L0,0z M7,7H2V2h5V7L7,7L7,7z"/>
	<path id="bottom-left" d="M0,11v9h9v-9H0L0,11L0,11z M7,18H2v-5h5V18L7,18L7,18z"/>
	<path id="top-right" d="M11,0v9h9V0H11L11,0L11,0z M18,7h-5V2h5V7L18,7L18,7z"/>
	<path id="top-left" d="M11,11v9h9v-9H11L11,11L11,11z M18,18h-5v-5h5V18L18,18L18,18z"/>
</g>
<rect id="fill-bottom-right" x="11" y="11" fill="none" width="9" height="9"/>
<rect id="fill-bottom-left" y="11" fill="none" width="9" height="9"/>
<rect id="fill-top-right" x="11" fill="none" width="9" height="9"/>
<rect id="fill-top-left" fill="none" width="9" height="9"/>
</svg>

<?xml version="1.0" encoding="UTF-8" standalone="no"?>
<svg width="20px" height="20px" viewBox="0 0 20 20" version="1.1" xmlns="http://www.w3.org/2000/svg" xmlns:xlink="http://www.w3.org/1999/xlink">
    <g id="projects">
        <path d="M0,0 L0,9 L9,9 L9,0 L0,0 L0,0 L0,0 Z M7,7 L2,7 L2,2 L7,2 L7,7 L7,7 L7,7 Z" id="Shape"></path>
        <path d="M0,11 L0,20 L9,20 L9,11 L0,11 L0,11 L0,11 Z M7,18 L2,18 L2,13 L7,13 L7,18 L7,18 L7,18 Z" id="Shape"></path>
        <path d="M11,0 L11,9 L20,9 L20,0 L11,0 L11,0 L11,0 Z M18,7 L13,7 L13,2 L18,2 L18,7 L18,7 L18,7 Z" id="Shape"></path>
        <path d="M11,11 L11,20 L20,20 L20,11 L11,11 L11,11 L11,11 Z M18,18 L13,18 L13,13 L18,13 L18,18 L18,18 L18,18 Z" id="Shape"></path>
    </g>
    <rect class="fill-rect"></rect>
</svg>
